public/images/explore.svg

<svg width="91" height="91" viewBox="0 0 91 91" fill="none" xmlns="http://www.w3.org/2000/svg">
<path d="M28.7219 64.174L51.5667 52.9885C51.8827 52.8622 52.1513 52.6884 52.3724 52.4672C52.5936 52.246 52.7674 51.9774 52.8938 51.6615L64.0792 28.8167C64.3952 28.1847 64.3162 27.6318 63.8422 27.1578C63.3683 26.6839 62.8153 26.6049 62.1834 26.9208L39.3386 38.1063C39.0226 38.2326 38.754 38.4064 38.5329 38.6276C38.3117 38.8488 38.1379 39.1174 38.0115 39.4333L26.8261 62.2781C26.5101 62.9101 26.5891 63.463 27.0631 63.937C27.537 64.4109 28.09 64.4899 28.7219 64.174V64.174ZM45.5 49.2917C44.4257 49.2917 43.5252 48.9283 42.7985 48.2016C42.0717 47.4748 41.7084 46.5743 41.7084 45.5C41.7084 44.4257 42.0717 43.5252 42.7985 42.7984C43.5252 42.0717 44.4257 41.7083 45.5 41.7083C46.5743 41.7083 47.4749 42.0717 48.2016 42.7984C48.9283 43.5252 49.2917 44.4257 49.2917 45.5C49.2917 46.5743 48.9283 47.4748 48.2016 48.2016C47.4749 48.9283 46.5743 49.2917 45.5 49.2917ZM45.5 83.4167C40.3181 83.4167 35.4205 82.4214 30.8073 80.4307C26.1941 78.4401 22.1655 75.7227 18.7214 72.2786C15.2773 68.8345 12.5599 64.8059 10.5693 60.1927C8.57869 55.5795 7.58337 50.6819 7.58337 45.5C7.58337 40.3181 8.57869 35.4205 10.5693 30.8073C12.5599 26.1941 15.2773 22.1655 18.7214 18.7214C22.1655 15.2773 26.1941 12.5599 30.8073 10.5693C35.4205 8.57865 40.3181 7.58333 45.5 7.58333C50.682 7.58333 55.5796 8.57865 60.1928 10.5693C64.8059 12.5599 68.8346 15.2773 72.2787 18.7214C75.7228 22.1655 78.4401 26.1941 80.4308 30.8073C82.4214 35.4205 83.4167 40.3181 83.4167 45.5C83.4167 50.6819 82.4214 55.5795 80.4308 60.1927C78.4401 64.8059 75.7228 68.8345 72.2787 72.2786C68.8346 75.7227 64.8059 78.4401 60.1928 80.4307C55.5796 82.4214 50.682 83.4167 45.5 83.4167ZM45.5 77.7292C54.3473 77.7292 61.9306 74.5694 68.25 68.25C74.5695 61.9306 77.7292 54.3472 77.7292 45.5C77.7292 36.6528 74.5695 29.0694 68.25 22.75C61.9306 16.4306 54.3473 13.2708 45.5 13.2708C36.6528 13.2708 29.0695 16.4306 22.75 22.75C16.4306 29.0694 13.2709 36.6528 13.2709 45.5C13.2709 54.3472 16.4306 61.9306 22.75 68.25C29.0695 74.5694 36.6528 77.7292 45.5 77.7292Z" fill="#B0B0B0"/>
</svg>

<svg xmlns="http://www.w3.org/2000/svg" width="91" height="91" fill="none" viewBox="0 0 91 91"><path fill="#B0B0B0" d="M28.722 64.174l22.845-11.186c.316-.126.584-.3.805-.52.222-.222.395-.49.522-.807l11.185-22.844c.316-.632.237-1.185-.237-1.66-.474-.473-1.027-.552-1.659-.236L39.34 38.106c-.316.127-.585.3-.806.522-.221.22-.395.49-.522.805L26.826 62.278c-.316.632-.237 1.185.237 1.659s1.027.553 1.659.237zM45.5 49.292c-1.074 0-1.975-.364-2.702-1.09-.726-.727-1.09-1.628-1.09-2.702s.364-1.975 1.09-2.702c.727-.726 1.628-1.09 2.702-1.09s1.975.364 2.702 1.09c.726.727 1.09 1.628 1.09 2.702s-.364 1.975-1.09 2.702c-.727.726-1.628 1.09-2.702 1.09zm0 34.125c-5.182 0-10.08-.996-14.693-2.986-4.613-1.99-8.641-4.708-12.086-8.152-3.444-3.444-6.161-7.473-8.152-12.086C8.58 55.58 7.583 50.682 7.583 45.5s.996-10.08 2.986-14.693c1.99-4.613 4.708-8.641 8.152-12.086 3.445-3.444 7.473-6.161 12.086-8.152C35.42 8.58 40.318 7.583 45.5 7.583s10.08.996 14.693 2.986c4.613 1.99 8.642 4.708 12.086 8.152 3.444 3.445 6.161 7.473 8.152 12.086 1.99 4.613 2.986 9.511 2.986 14.693s-.996 10.08-2.986 14.693c-1.99 4.613-4.708 8.642-8.152 12.086-3.444 3.444-7.473 6.161-12.086 8.152-4.613 1.99-9.511 2.986-14.693 2.986zm0-5.688c8.847 0 16.43-3.16 22.75-9.479 6.32-6.32 9.48-13.903 9.48-22.75s-3.16-16.43-9.48-22.75-13.903-9.48-22.75-9.48-16.43 3.16-22.75 9.48-9.48 13.903-9.48 22.75 3.16 16.43 9.48 22.75 13.903 9.48 22.75 9.48z"/></svg>
